public/images/appicon.svg

<?xml version="1.0" encoding="UTF-8"?>
<svg width="1024px" height="1024px" viewBox="0 0 1024 1024" version="1.1" xmlns="http://www.w3.org/2000/svg" xmlns:xlink="http://www.w3.org/1999/xlink">
    <title>App Icon</title>
    <defs>
        <path d="M1023.9744,324.352 C1023.9744,311.936 1023.9744,299.52 1023.8976,287.232 C1023.8336,276.736 1023.7184,266.368 1023.4368,255.872 C1023.14409,233.05555 1021.14168,210.293127 1017.4464,187.776 C1013.58734,165.247425 1006.39599,143.418848 996.1088,123.008 C975.187388,82.0709788 941.871904,48.7868535 900.9152,27.904 C880.540308,17.5655194 858.722671,10.3591402 836.1984,6.528 C813.66843,2.86301184 790.900382,0.85230485 768.0768,0.512 C757.6576,0.256 747.229867,0.128 736.7936,0.128 C724.416,0 712.0256,0 699.6736,0 L324.3008,0 C311.9232,0 299.5328,0 287.1808,0.128 C276.744533,0.128 266.312533,0.256 255.8848,0.512 C233.065493,0.852883167 210.301742,2.86358844 187.776,6.528 C165.24814,10.3611231 143.426574,17.5673747 123.0464,27.904 C82.0970514,48.7926002 48.7872482,82.0755263 27.8656,123.008 C17.5727617,143.416509 10.3811261,165.245949 6.528,187.776 C2.82640428,210.292331 0.82395378,233.05523 0.5376,255.872 C0.256,266.368 0.1408,276.736 0.0768,287.232 C0,299.52 0,311.936 0,324.352 L0,699.648 C0,712.064 0,724.48 0.0768,736.768 C0.0768,747.264 0.256,757.632 0.5376,768.128 C0.82395378,790.94477 2.82640428,813.707669 6.528,836.224 C10.3811261,858.754051 17.5727617,880.583491 27.8656,900.992 C48.7872482,941.924474 82.0970514,975.2074 123.0464,996.096 C143.426574,1006.43263 165.24814,1013.63888 187.776,1017.472 C210.293785,1021.19955 233.06226,1023.21067 255.8848,1023.488 C266.312533,1023.744 276.744533,1023.872 287.1808,1023.872 C299.5584,1024 311.9488,1024 324.3008,1024 L699.648,1024 C712.0256,1024 724.416,1024 736.768,1023.872 C747.204267,1023.872 757.632,1023.744 768.0512,1023.488 C790.878017,1023.21132 813.650796,1021.20019 836.1728,1017.472 C858.697071,1013.64086 880.514708,1006.43448 900.8896,996.096 C941.846304,975.213146 975.161788,941.929021 996.0832,900.992 C1006.37039,880.581152 1013.56174,858.752575 1017.4208,836.224 C1021.11608,813.706873 1023.11849,790.94445 1023.4112,768.128 C1023.6928,757.632 1023.808,747.264 1023.872,736.768 C1023.9488,724.48 1023.9488,712.064 1023.9488,699.648 L1023.9488,324.352 L1023.9744,324.352 Z" id="path-1"></path>
        <linearGradient x1="50%" y1="100%" x2="50%" y2="1.41225962%" id="linearGradient-3">
            <stop stop-color="#22335C" offset="0%"></stop>
            <stop stop-color="#344C84" offset="100%"></stop>
        </linearGradient>
        <rect id="path-4" x="0" y="0" width="1024" height="1024"></rect>
        <path d="M480.413025,767.648 C435.147436,767.648 406.048129,734.911279 406.048129,680.350079 C406.048129,625.384721 435.147436,592.648 480.413025,592.648 C526.082771,592.648 554.777921,626.193035 554.777921,680.350079 C554.777921,734.102965 526.082771,767.648 480.413025,767.648 Z" id="path-6"></path>
        <path d="M475.656,741.648 C438.024,741.648 413.832,714.432 413.832,669.072 C413.832,623.376 438.024,596.16 475.656,596.16 C513.624,596.16 537.48,624.048 537.48,669.072 C537.48,713.76 513.624,741.648 475.656,741.648 Z" id="path-7"></path>
    </defs>
    <g id="Page-1" stroke="none" stroke-width="1" fill="none" fill-rule="evenodd">
        <g id="App-Icon" transform="translate(-0.000000, 0.000000)">
            <mask id="mask-2" fill="white">
                <use xlink:href="#path-1"></use>
            </mask>
            <use id="Mask" fill="#FFFFFF" xlink:href="#path-1"></use>
            <g id="App-Icon-Square" mask="url(#mask-2)">
                <g transform="translate(0.000000, 0.000000)">
                    <rect id="App-Icon-1024x1024" fill="#FFFFFF" x="0" y="0" width="1024" height="1024"></rect>
                    <g id="Icon" stroke-width="1" fill="none">
                        <mask id="mask-5" fill="white">
                            <use xlink:href="#path-4"></use>
                        </mask>
                        <use id="Background" fill="url(#linearGradient-3)" xlink:href="#path-4"></use>
                        <path d="M263.272,467 L263.272,372.92 L293.176,372.92 C346.6,372.92 374.488,348.392 374.488,301.688 C374.488,255.32 347.272,232.808 293.176,232.808 L210.856,232.808 L210.856,467 L263.272,467 Z M287.8,324.536 L263.272,324.536 L263.272,281.192 L287.8,281.192 C310.984,281.192 321.736,284.552 321.736,302.36 C321.736,321.176 309.304,324.536 287.8,324.536 Z M428.584,467 L443.704,427.352 L531.736,427.352 L546.856,467 L604.312,467 L507.208,232.808 L468.568,232.808 L371.128,467 L428.584,467 Z M513.592,378.968 L462.184,378.968 L488.056,311.432 L513.592,378.968 Z M693.352,467 C773.32,467 817,426.344 817,351.752 C817,275.816 771.976,232.808 693.688,232.808 L623.128,232.808 L623.128,467 L693.352,467 Z M687.976,418.616 L675.88,418.616 L675.88,281.192 L692.68,281.192 C736.696,281.192 763.912,295.304 763.912,349.736 C763.912,406.184 735.688,418.616 687.976,418.616 Z M359.704,792 L359.704,743.616 L263.608,743.616 L263.608,557.808 L210.856,557.808 L210.856,792 L359.704,792 Z" id="PADLOK" fill="#FFFFFF" fill-rule="nonzero" mask="url(#mask-5)"></path>
                        <path d="M479.656,798.048 C547.528,798.048 594.568,748.992 594.568,675.072 C594.568,600.816 548.2,551.76 479.656,551.76 C411.784,551.76 365.08,601.152 365.08,675.072 C365.08,748.656 411.784,798.048 479.656,798.048 Z M678.232,792 L678.232,720.432 L713.848,684.48 L778.696,792 L839.848,792 L749.464,648.192 L839.176,557.808 L769.96,557.808 L678.232,654.24 L678.232,557.808 L625.48,557.808 L625.48,792 L678.232,792 Z" id="Path-2" fill="#3BBDFF" fill-rule="nonzero" mask="url(#mask-5)"></path>
                        <g id="Path" fill-rule="nonzero" mask="url(#mask-5)">
                            <use fill="#3BBDFF" xlink:href="#path-6"></use>
                            <use fill-opacity="0.4" fill="#000000" xlink:href="#path-6"></use>
                        </g>
                        <g id="Path" fill-rule="nonzero" mask="url(#mask-5)">
                            <use fill="#3BBDFF" xlink:href="#path-7"></use>
                            <use fill-opacity="0.4" fill="#FFFFFF" xlink:href="#path-7"></use>
                        </g>
                        <path d="M758.155911,947.986999 C758.155911,947.986999 758.155911,912.317951 733.696829,898.49168 C709.237748,884.665409 680.732752,888.142292 680.732752,888.142292 C680.732752,888.142292 670.933514,871.563143 647.419933,869.016444 C623.906352,866.469746 600.548825,871.563143 600.548825,871.563143 C600.548825,871.563143 589.34579,856.071046 567.348456,856.071046 C545.351122,856.071046 518.701123,871.563143 518.701123,871.563143 L518.701123,698.861782 C518.701123,682.921728 517.669427,648.787059 477.7045,648.768201 C437.739572,648.753781 439.247301,683.620561 439.247301,698.861782 L439.247301,914.535197 C439.247301,931.174085 430.45162,932.829972 426.408748,914.535197 C422.365876,896.240422 405.603573,866.886323 391.356076,856.071046 C377.108579,845.255769 346.729344,836.546222 326.276622,849.095543 C308.725489,859.864516 322.21726,877.24382 333.307527,898.49168 C360.004099,949.706176 385.760986,999.83137 391.356076,1034.34042 C407.142222,1131.81103 442.334772,1206.90013 563.728239,1207.00029 C696.132043,1207.06652 754.823711,1065.92607 758.155911,1040.23572 C760.377377,1023.10883 760.377377,992.359252 758.155911,947.986999 Z" id="Path" fill="#F6D040" fill-rule="nonzero" mask="url(#mask-5)"></path>
                        <g id="Hand" mask="url(#mask-5)">
                            <g transform="translate(317.822011, 648.765989)">
                                <path d="M440.3339,299.221009 C440.3339,299.221009 440.3339,263.551961 415.874819,249.72569 C391.415738,235.899419 362.910742,239.376302 362.910742,239.376302 C362.910742,239.376302 353.111504,222.797153 329.597923,220.250455 C306.084342,217.703757 282.726814,222.797153 282.726814,222.797153 C282.726814,222.797153 271.52378,207.305057 249.526446,207.305057 C227.529112,207.305057 200.879112,222.797153 200.879112,222.797153 L200.879112,50.0957926 C200.879112,34.1557383 199.847417,0.0210695305 159.882489,-1.14899409e-14 C119.917562,-0.0122082447 121.42529,34.8545715 121.42529,50.0957926 L121.42529,265.769208 C121.42529,282.408095 112.629609,284.063982 108.586737,265.769208 C104.543865,247.474433 87.781562,218.120334 73.5340653,207.305057 C59.2865687,196.48978 28.907333,187.780233 8.45461165,200.329554 C-9.0965212,211.098527 4.39524933,228.477831 15.4855167,249.72569 C42.1820882,300.940186 67.9389755,351.065381 73.5340653,385.574434 C89.3202117,483.045038 124.512761,558.13414 245.906228,558.232113 C312.804535,558.267763 395.958333,512.477572 414.375,448.418152 C426.652778,405.711872 435.305744,355.979491 440.3339,299.221009 Z" id="Path" fill="#FCBC37" fill-rule="nonzero"></path>
                            </g>
                        </g>
                    </g>
                </g>
            </g>
        </g>
    </g>
</svg>

<svg xmlns="http://www.w3.org/2000/svg" xmlns:xlink="http://www.w3.org/1999/xlink" width="1024" height="1024"><defs><path id="a" d="M1023.974 324.352c0-12.416 0-24.832-.076-37.12-.064-10.496-.18-20.864-.461-31.36a456.666 456.666 0 0 0-5.99-68.096 230.298 230.298 0 0 0-21.338-64.768 218.227 218.227 0 0 0-95.194-95.104 227.226 227.226 0 0 0-64.717-21.376A467.7 467.7 0 0 0 768.077.512C757.657.256 747.23.128 736.794.128 724.416 0 712.026 0 699.674 0H324.3c-12.378 0-24.768 0-37.12.128-10.436 0-20.868.128-31.296.384a467.686 467.686 0 0 0-68.109 6.016 227.443 227.443 0 0 0-64.73 21.376 218.291 218.291 0 0 0-95.18 95.104 229.888 229.888 0 0 0-21.338 64.768 454.976 454.976 0 0 0-5.99 68.096c-.282 10.496-.397 20.864-.461 31.36C0 299.52 0 311.936 0 324.352v375.296c0 12.416 0 24.832.077 37.12 0 10.496.179 20.864.46 31.36a454.976 454.976 0 0 0 5.991 68.096 229.888 229.888 0 0 0 21.338 64.768 218.291 218.291 0 0 0 95.18 95.104 227.443 227.443 0 0 0 64.73 21.376 450.56 450.56 0 0 0 68.109 6.016c10.428.256 20.86.384 31.296.384 12.377.128 24.768.128 37.12.128h375.347c12.378 0 24.768 0 37.12-.128 10.436 0 20.864-.128 31.283-.384a450.56 450.56 0 0 0 68.122-6.016 227.226 227.226 0 0 0 64.717-21.376 218.227 218.227 0 0 0 95.193-95.104 230.298 230.298 0 0 0 21.338-64.768 456.666 456.666 0 0 0 5.99-68.096c.282-10.496.397-20.864.461-31.36.077-12.288.077-24.704.077-37.12V324.352h.025Z"/><path id="c" d="M0 0h1024v1024H0z"/><path id="f" d="M480.413 767.648c-45.266 0-74.365-32.737-74.365-87.298 0-54.965 29.1-87.702 74.365-87.702 45.67 0 74.365 33.545 74.365 87.702 0 53.753-28.695 87.298-74.365 87.298Z"/><path id="g" d="M475.656 741.648c-37.632 0-61.824-27.216-61.824-72.576 0-45.696 24.192-72.912 61.824-72.912 37.968 0 61.824 27.888 61.824 72.912 0 44.688-23.856 72.576-61.824 72.576Z"/><linearGradient id="d" x1="50%" x2="50%" y1="100%" y2="1.412%"><stop offset="0%" stop-color="#22335C"/><stop offset="100%" stop-color="#344C84"/></linearGradient></defs><g fill="none" fill-rule="evenodd"><mask id="b" fill="#fff"><use xlink:href="#a"/></mask><use xlink:href="#a" fill="#FFF"/><g mask="url(#b)"><path fill="#FFF" d="M0 0h1024v1024H0z"/><g><mask id="e" fill="#fff"><use xlink:href="#c"/></mask><use xlink:href="#c" fill="url(#d)"/><path fill="#FFF" fill-rule="nonzero" d="M263.272 467v-94.08h29.904c53.424 0 81.312-24.528 81.312-71.232 0-46.368-27.216-68.88-81.312-68.88h-82.32V467h52.416ZM287.8 324.536h-24.528v-43.344H287.8c23.184 0 33.936 3.36 33.936 21.168 0 18.816-12.432 22.176-33.936 22.176ZM428.584 467l15.12-39.648h88.032L546.856 467h57.456l-97.104-234.192h-38.64L371.128 467h57.456Zm85.008-88.032h-51.408l25.872-67.536 25.536 67.536ZM693.352 467C773.32 467 817 426.344 817 351.752c0-75.936-45.024-118.944-123.312-118.944h-70.56V467h70.224Zm-5.376-48.384H675.88V281.192h16.8c44.016 0 71.232 14.112 71.232 68.544 0 56.448-28.224 68.88-75.936 68.88ZM359.704 792v-48.384h-96.096V557.808h-52.752V792h148.848Z" mask="url(#e)"/><path fill="#3BBDFF" fill-rule="nonzero" d="M479.656 798.048c67.872 0 114.912-49.056 114.912-122.976 0-74.256-46.368-123.312-114.912-123.312-67.872 0-114.576 49.392-114.576 123.312 0 73.584 46.704 122.976 114.576 122.976ZM678.232 792v-71.568l35.616-35.952L778.696 792h61.152l-90.384-143.808 89.712-90.384H769.96l-91.728 96.432v-96.432H625.48V792h52.752Z" mask="url(#e)"/><g fill-rule="nonzero" mask="url(#e)"><use xlink:href="#f" fill="#3BBDFF"/><use xlink:href="#f" fill="#000" fill-opacity=".4"/></g><g fill-rule="nonzero" mask="url(#e)"><use xlink:href="#g" fill="#3BBDFF"/><use xlink:href="#g" fill="#FFF" fill-opacity=".4"/></g><g mask="url(#e)"><path fill="#FFB900" fill-rule="nonzero" d="M758.156 947.987s0-35.669-24.46-49.495c-24.458-13.827-52.963-10.35-52.963-10.35s-9.8-16.579-33.313-19.126c-23.514-2.546-46.871 2.547-46.871 2.547s-11.203-15.492-33.2-15.492c-21.998 0-48.648 15.492-48.648 15.492V698.862c0-15.94-1.032-50.075-40.997-50.097-39.964-.011-38.457 34.856-38.457 50.097v215.673c0 16.64-8.795 18.295-12.838 0-4.043-18.295-20.805-47.649-35.053-58.464-14.247-10.815-44.627-19.525-65.08-6.975-17.55 10.769-4.059 28.148 7.032 49.396 26.696 51.214 52.453 101.34 58.048 135.848 15.786 97.471 50.979 172.56 172.372 172.658 66.899.036 150.052-45.754 168.469-109.814 12.278-42.706 20.93-92.439 25.959-149.197Z"/></g></g></g></g></svg>
